icons/linear-new-tool-edit-setting-outline-operation.svg

<svg xmlns="http://www.w3.org/2000/svg" width="32px" height="32px" viewBox="0 0 32 32" version="1.1">
    <title>linear-new-tool-edit-setting-outline-operation</title>
    <g id="linear-new-tool-edit-setting-outline-operation" stroke-width="1" fill-rule="evenodd">
        <path d="M11,3 C12.8664601,3 14.4343432,4.27836013 14.8758489,6.00728001 L14.9371885,6.00189218 L27,6 C27.5522847,6 28,6.44771525 28,7 C28,7.55228475 27.5522847,8 27,8 L15,8 C14.9577582,8 14.9161282,7.99738085 14.8752635,7.9922961 C14.4343432,9.72163987 12.8664601,11 11,11 C9.13643475,11 7.57052105,9.72560224 7.12621352,8.00076134 L5,8 C4.44771525,8 4,7.55228475 4,7 C4,6.44771525 4.44771525,6 5,6 L7.12595483,6.00024347 C7.56991294,4.27489272 9.13607289,3 11,3 Z M11,5 C9.8954305,5 9,5.8954305 9,7 C9,8.1045695 9.8954305,9 11,9 C12.1045695,9 13,8.1045695 13,7 C13,5.8954305 12.1045695,5 11,5 Z M21,12 C22.8639271,12 24.4300871,13.2748927 24.8740452,15.0002435 L27,15 C27.5522847,15 28,15.4477153 28,16 C28,16.5522847 27.5522847,17 27,17 L24.8737865,17.0007613 C24.429479,18.7256022 22.8635652,20 21,20 C19.1364348,20 17.570521,18.7256022 17.1262135,17.0007613 L5,17 C4.44771525,17 4,16.5522847 4,16 C4,15.4477153 4.44771525,15 5,15 L17.1259548,15.0002435 C17.5699129,13.2748927 19.1360729,12 21,12 Z M21,14 C19.8954305,14 19,14.8954305 19,16 C19,17.1045695 19.8954305,18 21,18 C22.1045695,18 23,17.1045695 23,16 C23,14.8954305 22.1045695,14 21,14 Z M14,21 C15.8639271,21 17.4300871,22.2748927 17.8740452,24.0002435 L27,24 C27.5522847,24 28,24.4477153 28,25 C28,25.5522847 27.5522847,26 27,26 L17.8737865,26.0007613 C17.429479,27.7256022 15.8635652,29 14,29 C12.1364348,29 10.570521,27.7256022 10.1262135,26.0007613 L5,26 C4.44771525,26 4,25.5522847 4,25 C4,24.4477153 4.44771525,24 5,24 L10.1259548,24.0002435 C10.5699129,22.2748927 12.1360729,21 14,21 Z M14,23 C12.8954305,23 12,23.8954305 12,25 C12,26.1045695 12.8954305,27 14,27 C15.1045695,27 16,26.1045695 16,25 C16,23.8954305 15.1045695,23 14,23 Z" id="&#24418;&#29366;" fill-rule="nonzero" />
    </g>
</svg>

<svg xmlns="http://www.w3.org/2000/svg" viewBox="0 0 32 32"><path fill="currentColor" d="M11 3a4.002 4.002 0 0 1 3.876 3.007l.061-.005L27 6a1 1 0 0 1 0 2H15a1.01 1.01 0 0 1-.125-.008 4 4 0 0 1-7.749.009L5 8a1 1 0 1 1 0-2h2.126C7.57 4.275 9.136 3 11 3m0 2a2 2 0 1 0 0 4 2 2 0 0 0 0-4m10 7a4.002 4.002 0 0 1 3.874 3H27a1 1 0 0 1 0 2h-2.126a4.002 4.002 0 0 1-7.748 0H5a1 1 0 0 1 0-2h12.126c.444-1.725 2.01-3 3.874-3m0 2a2 2 0 1 0 0 4 2 2 0 0 0 0-4m-7 7a4.002 4.002 0 0 1 3.874 3H27a1 1 0 0 1 0 2h-9.126a4.002 4.002 0 0 1-7.748 0H5a1 1 0 0 1 0-2h5.126c.444-1.725 2.01-3 3.874-3m0 2a2 2 0 1 0 0 4 2 2 0 0 0 0-4"/></svg>
